src/svgs/polygon.svg

<?xml version="1.0" encoding="UTF-8" standalone="yes"?>
<svg viewBox="0 0 20 20">
  <path d="M6,4C4.9,4,4,4.9,4,6c0,0.7,0.4,1.4,1,1.7v4.5c-0.6,0.4-1,1-1,1.7c0,1.1,0.9,2,2,2c0.7,0,1.4-0.4,1.7-1h4.5
	c0.4,0.6,1,1,1.7,1c1.1,0,2-0.9,2-2c0-0.7-0.4-1.4-1-1.7V7.7c0.6-0.4,1-1,1-1.7c0-1.1-0.9-2-2-2c-0.7,0-1.4,0.4-1.7,1H7.7
	C7.4,4.4,6.7,4,6,4z M8,7h4l1,1v4l-1,1H8l-1-1V8L8,7z"/>
</svg>

<?xml version="1.0" encoding="UTF-8" standalone="no"?>
<!-- Created with Inkscape (http://www.inkscape.org/) -->

<svg
   xmlns:dc="http://purl.org/dc/elements/1.1/"
   xmlns:cc="http://creativecommons.org/ns#"
   xmlns:rdf="http://www.w3.org/1999/02/22-rdf-syntax-ns#"
   xmlns:svg="http://www.w3.org/2000/svg"
   xmlns="http://www.w3.org/2000/svg"
   xmlns:sodipodi="http://sodipodi.sourceforge.net/DTD/sodipodi-0.dtd"
   xmlns:inkscape="http://www.inkscape.org/namespaces/inkscape"
   width="20"
   height="20"
   id="svg5738"
   version="1.1"
   inkscape:version="0.91+devel+osxmenu r12911"
   sodipodi:docname="polygon.svg"
   viewBox="0 0 20 20">
  <defs
     id="defs5740" />
  <sodipodi:namedview
     id="base"
     pagecolor="#ffffff"
     bordercolor="#666666"
     borderopacity="1.0"
     inkscape:pageopacity="0.0"
     inkscape:pageshadow="2"
     inkscape:zoom="22.627417"
     inkscape:cx="7.583678"
     inkscape:cy="9.3963613"
     inkscape:document-units="px"
     inkscape:current-layer="layer1"
     showgrid="true"
     inkscape:window-width="1390"
     inkscape:window-height="884"
     inkscape:window-x="20"
     inkscape:window-y="20"
     inkscape:window-maximized="0"
     showguides="true"
     inkscape:guide-bbox="true">
    <inkscape:grid
       type="xygrid"
       id="grid5746"
       empspacing="5"
       visible="true"
       enabled="true"
       snapvisiblegridlinesonly="true" />
  </sodipodi:namedview>
  <metadata
     id="metadata5743">
    <rdf:RDF>
      <cc:Work
         rdf:about="">
        <dc:format>image/svg+xml</dc:format>
        <dc:type
           rdf:resource="http://purl.org/dc/dcmitype/StillImage" />
        <dc:title />
      </cc:Work>
    </rdf:RDF>
  </metadata>
  <g
     inkscape:label="Layer 1"
     inkscape:groupmode="layer"
     id="layer1"
     transform="translate(0,-1032.3622)">
    <path
       style="color:#000000;display:inline;overflow:visible;visibility:visible;fill:#000000;fill-opacity:1;fill-rule:nonzero;stroke:none;stroke-width:0.5;marker:none;enable-background:accumulate"
       d="M 6 4 A 2 2 0 0 0 4 6 A 2 2 0 0 0 5 7.7304688 L 5 12.271484 A 2 2 0 0 0 4 14 A 2 2 0 0 0 6 16 A 2 2 0 0 0 7.7304688 15 L 12.271484 15 A 2 2 0 0 0 14 16 A 2 2 0 0 0 16 14 A 2 2 0 0 0 15 12.269531 L 15 7.7285156 A 2 2 0 0 0 16 6 A 2 2 0 0 0 14 4 A 2 2 0 0 0 12.269531 5 L 7.7285156 5 A 2 2 0 0 0 6 4 z M 8 7 L 12 7 L 13 8 L 13 12 L 12 13 L 8 13 L 7 12 L 7 8 L 8 7 z "
       transform="translate(0,1032.3622)"
       id="rect7797" />
  </g>
</svg>
